X:1
T:Boop
C:WITHHELD
%%score { 1 | 2 }
L:1/4
Q:1/4=140
M:4/4
I:linebreak $
K:D
V:1 treble nm="Piano" snm="Pno."
V:2 bass 
V:1
 z4 | z4 | z4 | z4 | z4 | z4 |$ z4 | z4 | z4 | z4 | z4 | z4 | z4 |$ z4 | z4 | z4 | z4 | z4 | z4 |$ %19
 z4 | z4 | z4 | z4 | z4 | z4 | z4 | z4 | z z c/ B e/- |$ e2 z2 | z z c/ B e/- | e2 z2 | %31
 f/e/a/c/- c2- | c2 A/B/c/e/ | f/e/a/c/- c2- | c d d/c/ B | [CA]4- |$ [CA]3 [DA] | [CA]4- | %38
 [CA]3 [CG] | A/F/E/C/ (3A, z z | z4 | %41
V:2
 A,,/E,/B,/C/ E2 | A,,/E,/B,/C/ E2 | A,,/E,/B,/C/ E2 | A,,/E,/B,/C/ E2 | D,,/A,,/E,/F,/ A,2 | %5
 D,,/A,,/E,/F,/ A,2 |$ D,,/A,,/E,/F,/ A,2 | D,,/A,,/E,/F,/ A,2 | A,,/E,/B,/C/ E2 | %9
 A,,/E,/B,/C/ E2 | A,,/E,/B,/C/ E2 | A,,/E,/B,/C/ E2 | D,,/A,,/E,/F,/ A,2 |$ D,,/A,,/E,/F,/ A,2 | %14
 D,,/A,,/E,/F,/ A,2 | E,,/B,,/E,/^G,/ B,/G,/ E, | A,,/E,/B,/C/ E2 | A,,/E,/B,/C/ E2 | %18
 A,,/E,/B,/C/ E2 |$ A,,/E,/B,/C/ E F/C/ | [E,D]3 A, | [D,F,]3 C,/D,/ | [E,D]3 A, | [F,,C,B,]4- | %24
 [F,,C,B,]3 B, | B,/A,/F,/B,/ [A,,E,A,]2- | [A,,E,A,]4 | A,,3/2- [A,,E,]/- [A,,E,]2- |$ %28
 [A,,E,]3 E, | A,,3/2- [A,,E,]/- [A,,E,]2- | [A,,E,]3 E, | [D,A,]4 | z4 | [D,A,]4- | [D,A,] z z2 | %35
 [A,,E,]4- |$ [A,,E,]4 | [A,,E,]4- | [A,,E,]4 | z2 (3z E, A,, | A,,, z z2 | %41